src/assets/images/home.svg

<svg fill="none" xmlns="http://www.w3.org/2000/svg" viewBox="0 0 60 60">
  <g clip-path="url(#clip0)" fill="#000">
    <path d="M59.362 24.3825L30.921 3.55868c-.5484-.40148-1.2935-.40148-1.8417 0L.638154 24.3825c-.6946877.5088-.845625 1.4842-.336914 2.1789.50871.6947 1.4843.8454 2.17887.3369L30.0001 6.74864 57.52 26.8982c.2775.2033.6.3012.9197.3012.48 0 .9537-.2209 1.2591-.6381.5088-.6946.3579-1.67-.3368-2.1788z"/>
    <path d="M51.8255 27.2512c-.8609 0-1.559.698-1.559 1.559v24.8143H37.7952V40.0793c0-4.2985-3.4971-7.7953-7.7953-7.7953s-7.7953 3.4971-7.7953 7.7953v13.5453H9.73312V28.8103c0-.861-.69808-1.559-1.55894-1.559s-1.55895.698-1.55895 1.559v26.3734c0 .861.69809 1.5589 1.55895 1.5589H23.7635c.8199 0 1.4908-.6334 1.5529-1.4375.0037-.0365.0061-.0763.0061-.1214V40.0794c0-2.5792 2.0982-4.6774 4.6774-4.6774 2.5792 0 4.6774 2.0983 4.6774 4.6774v15.1043c0 .0449.0024.084.0061.12.0614.8047.7325 1.4389 1.5528 1.4389h15.5894c.861 0 1.5589-.6979 1.5589-1.5589V28.8103c-.0001-.8611-.6981-1.5591-1.559-1.5591z"/>
  </g>
  <defs>
    <clipPath id="clip0">
      <path fill="#fff" d="M0 0h60v60H0z"/>
    </clipPath>
  </defs>
</svg>

<svg width="60" height="60" viewBox="0 0 60 60" fill="none" xmlns="http://www.w3.org/2000/svg">
<g clip-path="url(#clip0)">
<path d="M59.362 24.3825L30.921 3.55868C30.3726 3.1572 29.6275 3.1572 29.0793 3.55868L0.638154 24.3825C-0.0565337 24.8913 -0.207471 25.8667 0.30124 26.5614C0.80995 27.2561 1.78554 27.4068 2.48011 26.8983L30.0001 6.74864L57.52 26.8982C57.7975 27.1015 58.12 27.1994 58.4397 27.1994C58.9197 27.1994 59.3934 26.9785 59.6988 26.5613C60.2076 25.8667 60.0567 24.8913 59.362 24.3825Z" fill="black"/>
<path d="M51.8255 27.2512C50.9646 27.2512 50.2665 27.9492 50.2665 28.8102V53.6245H37.7952V40.0793C37.7952 35.7808 34.2981 32.284 29.9999 32.284C25.7017 32.284 22.2046 35.7811 22.2046 40.0793V53.6246H9.73312V28.8103C9.73312 27.9493 9.03504 27.2513 8.17418 27.2513C7.31332 27.2513 6.61523 27.9493 6.61523 28.8103V55.1837C6.61523 56.0447 7.31332 56.7426 8.17418 56.7426H23.7635C24.5834 56.7426 25.2543 56.1092 25.3164 55.3051C25.3201 55.2686 25.3225 55.2288 25.3225 55.1837V40.0794C25.3225 37.5002 27.4207 35.402 29.9999 35.402C32.5791 35.402 34.6773 37.5003 34.6773 40.0794V55.1837C34.6773 55.2286 34.6797 55.2677 34.6834 55.3037C34.7448 56.1084 35.4159 56.7426 36.2362 56.7426H51.8256C52.6866 56.7426 53.3845 56.0447 53.3845 55.1837V28.8103C53.3844 27.9492 52.6864 27.2512 51.8255 27.2512Z" fill="black"/>
</g>
<defs>
<clipPath id="clip0">
<rect width="60" height="60" fill="white"/>
</clipPath>
</defs>
</svg>
